X: 621
U:~=!turn!
M:C|
L:1/8
K:D
(AF)(TED) {/F}G3 B | (GF)(TED) E3 B | (AF)(TED) {/F}GAB{/c}d | AG{/G}FE {FE}D2 D :|
{/c}defd {/f}gfec | {/c}defd ecTBA | {/c}defd {/f}gfeg | f/2g/2a ef {/c}d3 A |
{/c}defd {/f}gfec | {/c}defa ec{dc}BA | {/c}defd {/f}gfeg | faef {/c}d2 d |]


